svgs/thin/window-frame.svg

<svg xmlns="http://www.w3.org/2000/svg" viewBox="0 0 512 512"><!--! Font Awesome Pro 6.6.0 by @fontawesome - https://fontawesome.com License - https://fontawesome.com/license (Commercial License) Copyright 2024 Fonticons, Inc. --><path d="M248 256l0 240L48 496l0-240 200 0zm16 240l0-240 200 0 0 240-200 0zm216 0l0-432c0-35.3-28.7-64-64-64L96 0C60.7 0 32 28.7 32 64l0 432L8 496c-4.4 0-8 3.6-8 8s3.6 8 8 8l24 0 16 0 416 0 16 0 24 0c4.4 0 8-3.6 8-8s-3.6-8-8-8l-24 0zM464 240l-200 0 0-224 152 0c26.5 0 48 21.5 48 48l0 176zM96 16l152 0 0 224L48 240 48 64c0-26.5 21.5-48 48-48z"/></svg>

<svg xmlns="http://www.w3.org/2000/svg" viewBox="0 0 512 512"><!--! Font Awesome Pro 6.4.2 by @fontawesome - https://fontawesome.com License - https://fontawesome.com/license (Commercial License) Copyright 2023 Fonticons, Inc. --><path d="M248 256V496H48V256H248zm16 240V256H464V496H264zm216 0V64c0-35.3-28.7-64-64-64H96C60.7 0 32 28.7 32 64V496H8c-4.4 0-8 3.6-8 8s3.6 8 8 8H32 48 464h16 24c4.4 0 8-3.6 8-8s-3.6-8-8-8H480zM464 240H264V16H416c26.5 0 48 21.5 48 48V240zM96 16H248V240H48V64c0-26.5 21.5-48 48-48z"/></svg>
